X:1
T:Three Little Oddities
T:Impromptu
T:Zez Confrey
T:Novelette
T:Zez Confrey
T:Romanza
T:Zez Confrey
T:Copyright, 1923, by The Boston Music Co
T:Copyright, 1923, by The Boston Music Co
T:Copyright, 1923, by The Boston Music Co
T:Copyright, 1923, by The Boston Music Co
T:Copyright, 1923, by The Boston Music Co
T:Copyright, 1923, by The Boston Music Co
T:Copyright, 1923, by The Boston Music Co
T:Copyright, 1923, by The Boston Music Co
T:Copyright, 1923, by The Boston Music Co
T:Copyright, 1923, by The Boston Music Co
C:Zez Confrey
Z:Copyright, 1923, by The Boston Music Co
%%score { ( 1 2 ) | ( 3 4 ) }
L:1/8
Q:1/4=140
M:4/4
K:Db
V:1 treble nm="Piano" snm="Pno."
V:2 treble 
V:3 bass 
V:4 bass 
V:1
"^Allegro e tranquillo""_Piano"!<(! (!arpeggio!f2 ec B2 ce |"_cresc." !arpeggio!f2 ec B2 ce)!<)! | %2
!>(! (!arpeggio!f2 ec =A2 ce |"_dim." !arpeggio!f2"^rall."[Q:1/4=130] ec =A2 ce)!>)! | %4
"^a tempo"!p!!<(! z8!<)! |!>(! z8!>)! |!p!!<(! z (=A[Bdf]A!<)! [_Ac=e]=G[_GBd]F | %7
!>(! [=EAc]8)!>)! |!<(! z ((=A[Bdf]A!<)! [_Ac=e]=G[_GBd]F |!>(! [=EAc]8))!>)! | %10
 z (F[GBd]F [GBd]F[Bdf]=A |"_cresc." [_Ac=e]=G[_GBd]F [Bdf]=A [df=a]2) | %12
 !>![=e_a]2 z2 !>![c=e]2 z2 | [_E=A_d]8 |!p!!<(! z (=A[Bdf]A!<)! [_Ac=e]=G[_GBd]F | %15
 [=EAc]=D [EAc]6) | z (=A[Bdf]A [_Ac=e]=G[_GBd]F | [=EAc]=D!>(! !tenuto![EAc]6)!>)! | %18
 z (F[GBd]F [GBd]F[Bdf]=A) |"_cresc." ([_Ac=e]=G[_GBd]F [Bdf]=A[df=a]c) | %20
 ([Bdf]=A[GBd]F [GBd]=D[_DF=A]C | [B,DF]4-) [B,DF]2 z2 |!p! !tenuto!F8 | !tenuto!F8 | %24
 ([CA]2 [B,E][CA] [B,E]4-) | [B,E]2 .[ca].[Be] .[ca].[Be] .[ca]2 | !tenuto!F8 | !tenuto!F8 | %28
 ([CA]2 [B,E][CA] [B,E]4-) | [B,E]2 .[ca].[Be] .[ca].[Be] .[ca]2 |"_cresc." !tenuto!B8 | %31
 !tenuto!__B8 |!<(! !tenuto!_B4 !tenuto!B4!<)! |!ff!"^rall." !>![F=GBd]8 | %34
!p!"^a tempo" (f2 ec B2 ce) | (f2 ec B2 ce) | (f2 ec __B2 ce) | %37
 [Fd]4- [Fd]2 !arpeggio!!fermata![ad'a']2 |!p! !tenuto!f8 | !tenuto!f8 | [ca]2 [Be][ca] [Be]4- | %41
 [Be]2!8va(! .[c'a'].[be'] .[c'a'].[be'] .[c'a']2!8va)! | !tenuto!f8 | !tenuto!f8 | %44
 [ca]2 [Be][ca] [Be]4- | [Be]2!8va(! .[c'a'].[be'] .[c'a'].[be'] .[c'a']2!8va)! |"_cresc." b8 | %47
 __b8 |!<(! _b4 b4!<)! |"^rall."!ff! !>![f=gbd']8 |"^a tempo"!p! f'2 e'd' b2 c'e' | %51
 f'2 e'd' b2 c'e' |"_morendo" f'2 e'c' =a2 c'e' |"_rall." f'2!>(! e'c' =a2 c'e'!>)! | %54
"^a tempo"!p!!<(! z8!<)! |!>(! z8!>)! |!p!!<(! z (=A[Bdf]A!<)! [_Ac=e]=G[_GBd]F | %57
!>(! [=EAc]8)!>)! |!<(! z ((=A[Bdf]A!<)! [_Ac=e]=G[_GBd]F |!>(! [=EAc]8))!>)! | %60
 z (F[GBd]F [GBd]F[Bdf]=A |"_cresc." [_Ac=e]=G[_GBd]F [Bdf]=A [df=a]2) | %62
 !>![=e_a]2 z2 !>![c=e]2 z2 | [_E=A_d]8 |!p!!<(! z (=A[Bdf]A!<)! [_Ac=e]=G[_GBd]F | %65
 [=EAc]=D [EAc]6) | z (=A[Bdf]A [_Ac=e]=G[_GBd]F) | [=EAc]=D!>(! !tenuto![EAc]6!>)! | %68
 z (F[GBd]F [GBd]F[Bdf]=A) |"_cresc." ([_Ac=e]=G[_GBd]F [Bdf]=A[df=a]c) | %70
 ([Bdf]=A[GBd]F [GBd]=D[_DF=A]C | [B,DF]4)"_dim." [EGB]=D[_DF=A]C | [B,DF]4 [EGB]=D[_DF=A]C | %73
!p! [B,DF]4"_morendo" [EGB]=D[_DF=A]C |"^rit." ([B,D-F-]8 | [=A,DF]8) |!pp! !arpeggio![F,B,F]8- | %77
 !fermata![F,B,F]8 |] %78
[K:A][M:4/4]!p![Q:1/4=160]"^Allegretto grazioso" z2!<(! ([c'f']b!<)! c'e'c'b) | z2 ([gc']f gbgf) | %80
 z2 ([cf]B cecB) | %81
"^rall." !tenuto![^Dc]2[Q:1/4=150] !tenuto![Gf]2[Q:1/4=140] !tenuto![^dc']2 !tenuto![Gf]2 | %82
[Q:1/4=160]"_a tempo" [Ac]3 [Bd]!<(! [ce]3 [df] | gabc'!<)!!>(! !arpeggio![eae']4!>)! | %84
!<(! z [=fe']!<)![ad'][eb] [fa][B=g][df][=Fd] | [Ac]!>(!E[G^B]E [Ac]2!>)! [FA][G=B] | %86
 [Ac]3 [Bd]!<(! [ce]3 [df] | gabc'!<)!!>(! !arpeggio![eae']4!>)! | %88
"_espressivo" (d'=g') (=f'=c') (c'f') (_e'_b) | ([^F=d][=F_e][^G=e][=G=f] ^fc'- !fermata!c'2) | %90
"_a tempo"{/a} (A/c/e/a/!8va(! c'/e'/a'/c''/ e''2)!8va)!!mf! AA | (AGAG AGFG | %92
 [A,CFA]4-) [A,CFA]2 cc | (cBcB cBAB | [CAc]4-) [CAc]2 ee | (e^ded edcd | %96
 [Gce]2) !tenuto!f2 !tenuto!d2 !tenuto!e2 | !tenuto!c2 !tenuto!c2 !tenuto!A2 !tenuto!B2 | %98
 A2 [EG]2 !tenuto!!fermata![CEA]4 |"_a tempo"!p! [Ac]3 [Bd]!<(! [ce]3 [df] | %100
 ga!<)!bc'!>(! !arpeggio![eae']4!>)! |!<(! z ([=fe'][ad'][eb]!<)! [fa][B=g][df][=Fd]) | %102
 [Ac]E!>(![G^B]E .[Ac]2!>)! [FA][G=B] | [Ac]3 [Bd]!<(! [ce]3 [df] | %104
 ga!<)!bc'!>(! !arpeggio![eae']4!>)! |"_espressivo" (d'=g') (=f'=c') (c'f') (_e'_b) | %106
 ([^F=d][=F_e][^G=e][=G=f] ^fc'- !fermata!c'2) | %107
"_a tempo"{/a} (A/c/e/a/!8va(! c'/e'/a'/c''/!>(! !fermata!e''4)!8va)!!>)! || %108
[K:D]!mf! z!<(! ([ca][df][ca] [df][Bg]!<)![ce][Gf]) |"_dim." [Bd]4 [G_B]4 | %110
 [_E^F]4 [^G,DF]2 [=G,^CF]2 | z ([ca][df][ca] [df][Bg][ce][Gf]) | [Bd]4 [G_B]4 | %113
 [_E^F]4 [^G,DF]2 [=G,^CF]2 | z"_accel. e  cresc." (A,[DFA]A, !tenuto![GA]4) | %115
 z (=C[=FA=c]C !tenuto![_Bc]4) | z (_E[_A=c_e]E !tenuto![_de]4) | [=d=e]4!>(! [c^e]4!>)! | %118
!mf! z!<(! ([ca][df][ca] [df][Bg]!<)![ce][Gf]) |"_dim." [Bd]4 [G_B]4 | [_E^F]4 [^G,DF]2 [=G,^CF]2 | %121
 z"_cresc." (A,[DFA]A, !tenuto![GA]4) |[Q:1/4=150] z (D[Ad]D !tenuto![Bd]4) | %123
!f![Q:1/4=140] z7/4 .[cfa]/4 !>![cfa]7/4[c'f'a']/4 !fermata![c'f'a']2"_Cadenza ad lib."[Q:1/4=30]!8va(! (8:2:16!>![f'b'd'']/e'/[c'f'a']/b/!8va)![fbd']/e/[cfa]/B/[FBd]/E/[CFA]/B,/[I:staff +1][F,B,D]/E,/[C,F,A,]/B,,/ | %124
[Q:1/4=80][I:staff -1] z[K:bass] (D,/F,/[K:treble] A,/D/F/A/[Q:1/4=90] d/f/a/d'/!8va(! f'/a'/d''/f''/ | %125
 !fermata!a''8)!8va)! |][K:A][M:4/4][Q:1/4=170]"^Moderato"{/e-} [ee']8 |{/e-} [ee']8 | %128
{/e-} [ee']8 |{/e-} [ee']8 ||!p!"_dolce"{/f} (e'!<(!c'ba!<)! fecd |!>(! e3 f e2)!>)! (dc | %132
 eded cBAB | (([Ec]2 [CA]6))) |!p!"_dolce"{/f} (e'!<(!c'ba!<)! fecd |!>(! e3 f e2)!>)! (dc | %136
!>(! eded!>)! cBAB | c2) !tenuto![B,=FA]2 !tenuto![^A,E!courtesy!^G]2 (G^A | c^dfd [Gc]2) (FG | %139
 Bcec [FB]2) (EF | EF A2) (DE F2) | [A,CA]4!<(! (AB!<)! ||"_poco animato" (3cdc ^Bc =edc=B) | %143
 (3(BcB A2) (3(BcB A2) | (3(GAG ^^FG !courtesy!=BAGF | [EG]4) x2 (AB | (3cdc ^Bc =edc=B) | %147
 (3(BcB A2) (3(BcB A2) | GBce c^dfg | fg b2 z2 z3/2 (e/ |!p!"_dolce" e'!<(!c'ba!<)! fecd | %151
!>(! e3 f e2)!>)! (dc | eded cBAB | (([Ec]2 [CA]6))) |{/f} (e'!<(!c'ba!<)! fecd | %155
!>(! e3 f e2)!>)! (dc |!>(! eded!>)! cBAB | c2) !tenuto![B,=FA]2 !tenuto![^A,E!courtesy!^G]2 (G^A | %158
 c^dfd [Gc]2) (FG | Bcec [FB]2)[Q:1/4=160] (EF | %160
"_rall." EF !tenuto!A2)[Q:1/4=150] (DE !tenuto!F2) |!p![Q:1/4=140] [A,CA]8 |] %162
V:2
 !arpeggio!!>![G-B]4 G4 | !arpeggio!!>![G-B]4 G4 | !arpeggio!!>![F-=A]4 F4 | %3
 !arpeggio!!>![F-=A]4 F4 | x8 | x8 | x8 | x8 | x8 | x8 | x8 | x8 | (Bc B) z (!courtesy!_GA G) z | %13
 x8 | x8 | x8 | x8 | x8 | x8 | x8 | x8 | x8 | (C2 B,C B,2 A,2) | (C2 B,C B,2 A,2) | x8 | x8 | %26
 (C2 B,C B,2 A,2) | (C2 B,C B,2 A,2) | x8 | x8 | (F2 EF E2 D2) | (F2 EF E2 D2) | (F2 EF (E2 D2)) | %33
 x8 | [G-B]4 G4 | [G-B]4 G4 | [G-__B]4 G4 | x8 | (c2 Bc B2 A2) | (c2 Bc B2 A2) | x8 | %41
 x2!8va(! x6!8va)! | (c2 Bc B2 A2) | (c2 Bc B2 A2) | x8 | x2!8va(! x6!8va)! | (f2 ef e2 d2) | %47
 (f2 ef e2 d2) | (f2 ef e2 d2) | x8 | [g-b]4 g4 | [g-b]4 g4 | [f-=a]4 f4 | [f-=a]4 f4 | x8 | x8 | %56
 x8 | x8 | x8 | x8 | x8 | x8 | (Bc B) z (GA G) z | x8 | x8 | x8 | x8 | x8 | x8 | x8 | x8 | x8 | %72
 x8 | x8 | x8 | x8 | x8 | x8 |][K:A][M:4/4] x8 | x8 | x8 | (GF) (cB) (gf) (c!fermata!^B) | x8 | %83
 e4 x4 | x8 | x8 | x8 | e4 x4 | _b2 a2 _a2 =g2 | x4 [^Gd]4 | x2!8va(! x4!8va)! x2 | [B,C]8 | x8 | %93
 [DE]8 | x8 | [FG]8 | x2 (c=G) (BF) (B=F) | (AE) (GD) (FC) (FB,) | EC B,D x4 | x8 | e4 x4 | x8 | %102
 x8 | x8 | e4 x4 | _b2 a2 _a2 =g2 | x4 [^Gd]4 | x2!8va(! x6!8va)! ||[K:D] x8 | (F2 =F2) (D2 ^C2) | %110
 (_B,2!>(! A,2) x4!>)! | x8 | (F2 =F2) (D2 ^C2) | (_B,2!>(! A,2) x4!>)! | x4 (C2 B,2) | %115
 x4 (E2 =C2) | x4 (G2 _E2) | (^G2 E2) (=G2 =F2) | x8 | (F2 =F2) (D2 D2) | (_B,2 A,2) x4 | %121
 x4 (C2 B,2) | x4 (E2 D2) | x6!8va(! x/!8va)! x3/2 | x[K:bass] x[K:treble] x4!8va(! x2 | %125
 x8!8va)! |][K:A][M:4/4] x8 | x8 | x8 | x8 || x8 | x8 | x8 | x8 | x8 | x8 | x8 | x8 | [EG]4 ^D4 | %139
 [=DF]4 C4 | =C2 [B,E]2 ^A,2 [^G,D]2 | x6 || x8 | x8 | x8 | x8 | x8 | x8 | x4 A2 [Ac]2 | %149
 =d2 [df]2 x4 | x8 | x8 | x8 | x8 | x8 | x8 | x8 | x8 | [EG]4 ^D4 | [=DF]4 C4 | %160
 =C2 [A,E]2 ^A,2 [^G,D]2 | x8 |] %162
V:3
 !arpeggio![E,D]CB,A, G,A,B,C | !arpeggio![E,D]CB,A, G,A,B,C | !arpeggio!DC=A,F, E,F,A,C | %3
 !arpeggio!DC=A,F, E,F,A,C | (B,,F,D) z (B,,F,D) z | (B,,F,D) z (B,,F,D) z | %6
 (B,,F,D) z (B,,F,D) z | (B,,G,C) z (B,,G,C) z | (B,,F,D) z (B,,F,D) z | %9
 ((B,,G,C)) z ((B,,G,C)) z | (B,,F,D) z (B,,F,D) z | (B,,F,D) z (B,,F, D2) | %12
 (=D=E D) z (B,C B,) z | (F,2 G,A, G,2 F,2) | (B,,F,D) z (B,,F,D) z | ((B,,G,C)) z ((B,,G,C)) z | %16
 (B,,F,D) z (B,,F,D) z | ((B,,G,C)) z ((B,,G,C)) z | (B,,F,D) z (B,,F,D) z | %19
 (B,,F,D) z (B,,F,D) z | B,,2 z2 F,,4 | B,,,F,,D, z B,,,2 z2 | (D,,A,,D,F, D,A,,D,,A,,) | %23
 (D,F,D,A,, D,,A,,D,A,,) | (D,,A,,C,G, C,A,,D,,A,,) | (C,G,E,C, D,,A,, G,2) | %26
 (D,,A,,D,F, D,A,,D,,A,,) | (D,F,D,A,, D,,A,,D,A,,) | (D,,A,,C,G, C,A,,D,,A,,) | %29
 (C,G,E,C, D,,A,, G,2) | G,,D,G,B, G,D,G,,D, | G,__B,G,F, G,,D,G,_B, | G,D,G,,D, G,B,G,D, | %33
 !^!E,,!^!B,,!^!D,!^!F, !^!=G,!^!B, !^!D2 | ([E,D]CB,A, G,A,B,C) | ([E,D]CB,A, G,A,B,C) | %36
 (DC__B,G, E,G,B,C) | D,A,DF[K:treble] Ad !arpeggio!!fermata!f2 |[K:bass] (D,A,DF DA,D,A,) | %39
 (DFDA, D,A,DA,) | (D,A,CG CA,D,A,) | (CGCA, D,G, G2) | (D,A,DF DA,D,A,) | (DFDA, D,A,DA,) | %44
 (D,A,CG CA,D,A,) | (CGCA, D,G, G2) | (G,D[K:treble]GB GDG,D) | (G__BGD G,DG_B) | (GDG,D GBGD) | %49
[K:bass] !^!E,!^!B,!^!D!^!F[K:treble] !^!=G!^!B !^!d2 | ([Ed]cBA GABc) | ([Ed]cBA GABc) | %52
 (dc=AF EFAc) | (dc=AF EFAc) |[K:bass] (B,,F,D) z (B,,F,D) z | (B,,F,D) z (B,,F,D) z | %56
 (B,,F,D) z (B,,F,D) z | ((B,,G,C)) z ((B,,G,C)) z | (B,,F,D) z (B,,F,D) z | %59
 ((B,,G,C)) z ((B,,G,C)) z | (B,,F,D) z (B,,F,D) z | (B,,F,D) z (B,,F, D2) | %62
 (=D=E D) z (B,C B,) z | (F,2 G,A, G,2 F,2) | (B,,F,D) z (B,,F,D) z | ((B,,G,C)) z ((B,,G,C)) z | %66
 (B,,F,D) z (B,,F,D) z | ((B,,G,C)) z ((B,,G,C)) z | (B,,F,D) z (B,,F,D) z | %69
 (B,,F,D) z (B,,F,D) z | B,,2 z2 F,,4 | (B,,,F,, D,2) z4 | (B,,,F,, D,2) z4 | (B,,,F,, D,2) z4 | %74
 (([G,,D,]8 | [F,,E,]8)) | !arpeggio![B,,,F,,D,]2[K:treble] d6 | %77
[K:bass]!8vb(! !fermata!B,,,,8!8vb)! |][K:A][M:4/4][K:treble] z2 !tenuto![Gdf]6 | %79
 z2 !tenuto![^DAc]6 |[K:bass] z2 !tenuto![G,=DF]6 | [B,,A,]2 [E,=D]2 [B,A]2 !fermata![E,D]2 | %82
[K:treble] (!arpeggio!F2 E2) (!arpeggio!!tenuto!B2 A2) | %83
 (!arpeggio!!tenuto!c2 B2) (!arpeggio!!tenuto!B2 A2) |[K:bass] B,,2 !tenuto![A,B,D=F]6 | %85
 (E,2- [E,D]2) (A,,E, C2) |[K:treble] (!arpeggio!!tenuto!F2 E2) (!arpeggio!!tenuto!B2 A2) | %87
 (!arpeggio!!tenuto!c2 B2) (!arpeggio!!tenuto!B2 A2) | %88
 !arpeggio![=CE_B]2 !arpeggio![=FA_e]2 !arpeggio![_B,D_A]2 !arpeggio![_E=G_d]2 | %89
[K:bass] [_A,=C][=G,=B,][_B,D][=A,^C] [E,^G,D]4 | (A,,/E,/A,/C/[K:] G/c/e/g/ c'2) z2 | %91
[K:bass] (F,^E,F,E, F,E,^D,E,) | (F,2 C,2 F,,2) z2 | (A,G,A,G, A,G,F,G, | (A,2) E,2 A,,2) z2 | %95
 (C^B,CB, CB,^A,B, | C2) ^A,2 B,2 !courtesy!^G,2 | A,2 ^E,2 F,2 D,2 | %98
 E,2 E,,2 [A,,E,]2 !fermata!A,,,2 |[K:treble] (!arpeggio!F2 E2) (!arpeggio!!tenuto!B2 A2) | %100
 (!arpeggio!!tenuto!c2 B2) (!arpeggio!!tenuto!B2 A2) |[K:bass] B,,2 !tenuto![A,B,D=F]6 | %102
 (E,2- [E,D]2) (A,,E, C2) |[K:treble] (!arpeggio!!tenuto!F2 E2) (!arpeggio!!tenuto!B2 A2) | %104
 (!arpeggio!!tenuto!c2 B2) (!arpeggio!!tenuto!B2 A2) | %105
 !arpeggio![=CE_B]2 !arpeggio![=FA_e]2 !arpeggio![_B,D_A]2 !arpeggio![_E=G_d]2 | %106
[K:bass] [_A,=C][=G,=B,][_B,D][=A,^C] [E,^G,D]4 | %107
 (A,,/E,/A,/C/[K:] G/c/e/g/ c'2)[K:bass] !fermata!A,,,2 ||[K:D] (D,,A,,D,F, A,DC^A,) | %109
 (B,_B,A,_A,) (G,F,=F,E,) | (_E,D,C,=C,) (B,,_B,, A,,A,,,) | (D,,A,,D,F, A,DC^A,) | %112
 (B,_B,A,_A,) (G,F,=F,E,) | (_E,D,C,=C,) (B,,_B,, A,,A,,,) | (D,,A,,F,A,,) E,,A,, G,2 | %115
 (=F,,=C,A,C,) (G,,C, _B,2) | (_A,,_E,=CE,) (_B,,E, _D2) | _B,,=E, [^G,=D]2 A,,A, [=G,C]2 | %118
 (D,,A,,D,F, A,DC^A,) | (B,_B,A,_A,) (G,F,=F,E,) | (_E,D,C,=C,) (B,,_B,, A,,A,,,) | %121
 (D,,A,,F,A,,) E,,A,, G,2 | (F,,D,A,D,) (G,,D, B,2) | %123
 A,,7/4.[A,CG]/4 !>![A,CG]7/4[K:treble][Acg]/4 !fermata![Acg]2[K:bass] x2 | %124
 ([D,,A,,]F,,/A,,/ D,/F,/A,/D/[K:treble] F/A/c/f/!8va(! a/d'/f'/a'/ | %125
 d''4)!8va)![K:bass] !fermata![D,,A,,]4 |][K:A][M:4/4][K:treble] (!arpeggio!!tenuto!B2 A2 B2 A2) | %127
 (!arpeggio!!tenuto!A2 G2 A2 G2) | ((!arpeggio!!tenuto!B2 A2 B2 A2)) | %129
 ((!arpeggio!!tenuto!A2 G2 A2 G2)) || (!tenuto!B2 A6) | (A2 G2) (!tenuto!G2 =G2) | %132
 [B,DF]2 [=A,DF]2 (F2 =F2) |[K:bass] z (E,F,E, F,2 E,2) |[K:treble] ((!tenuto!B2 A6)) | %135
 ((!tenuto!A2 G2)) ((!tenuto!G2 =G2)) |[K:bass] [B,DF]2 [A,DF]2 [G,DF]2 [F,DF]2 | z2 C,2- C,4 | %138
 [F,^A,]4 [B,,=A,]4 | [E,G,]4 [A,,=G,]4 | [D,F,]2 [=F,,=F,]2 [=C,E,]2 [E,,B,,]2 | %141
 [A,,E,]2 !tenuto!A,,,2 z2 ||[K:treble] A2 ^^F2 G4 | [A,CG]2 [A,CF]2 [A,CG]2 [A,CF]2 | %144
[K:bass] E2 ^^C2 ^D4 | (E,G,^B,C[I:staff -1] EG)[I:staff +1] z2 |[K:treble] A2 ^^F2 G4 | %147
 [A,CG]2 [A,CF]2 [A,=CEG]2 [A,CEF]2 | [B,E]4 [B,E]2 [B,^D]2 | [EA]2 [EG]2[K:bass] E,2 E,,2 | %150
[K:treble] ((!tenuto!B2 A6)) | ((!tenuto!A2 G2)) ((!tenuto!G2 =G2)) | [B,DF]2 [=A,DF]2 (F2 =F2) | %153
[K:bass]!<(! z (E,F,!<)!!>(!E, F,2 E,2)!>)! |[K:treble] (((!tenuto!B2 A6))) | %155
 (((!tenuto!A2 G2))) (((!tenuto!G2 =G2))) |[K:bass] [B,DF]2 [A,DF]2 [G,DF]2 [F,DF]2 | z2 C,2- C,4 | %158
 [F,^A,]4 [B,,=A,]4 | [E,G,]4 [A,,=G,]4 | [D,F,]2 [=G,,=F,]2 [=C,E,]2 [E,,B,,]2 | %161
 [A,,E,]2 !tenuto!A,,,6 |] %162
V:4
 x8 | x8 | x8 | x8 | x8 | x8 | x8 | x8 | x8 | x8 | x8 | x8 | x8 | x8 | x8 | x8 | x8 | x8 | x8 | %19
 x8 | x8 | x8 | x8 | x8 | x8 | x8 | x8 | x8 | x8 | x8 | x8 | x8 | x8 | x8 | x8 | x8 | x8 | %37
 x4[K:treble] x4 |[K:bass] x8 | x8 | x8 | x8 | x8 | x8 | x8 | x8 | x2[K:treble] x6 | x8 | x8 | %49
[K:bass] x4[K:treble] x4 | x8 | x8 | x8 | x8 |[K:bass] x8 | x8 | x8 | x8 | x8 | x8 | x8 | x8 | x8 | %63
 x8 | x8 | x8 | x8 | x8 | x8 | x8 | x8 | x8 | x8 | x8 | x8 | x8 | x2[K:treble] x6 | %77
[K:bass]!8vb(! x8!8vb)! |][K:A][M:4/4][K:treble] !>!E8 | !>!B,8 |[K:bass] !>!E,8 | x8 | %82
[K:treble] !arpeggio![A,C]4 !arpeggio![CE]4 | !arpeggio![DEG]4 !arpeggio![CE]4 |[K:bass] x8 | x8 | %86
[K:treble] !arpeggio![A,C]4 !arpeggio![CE]4 | !arpeggio![DEG]4 !arpeggio![CE]4 | x8 |[K:bass] x8 | %90
 x2[K:] x6 |[K:bass] C,8 | x8 | E,8 | x8 | G,8 | x8 | x8 | x8 | %99
[K:treble] !arpeggio![A,C]4 !arpeggio![CE]4 | !arpeggio![DEG]4 !arpeggio![CE]4 |[K:bass] x8 | x8 | %103
[K:treble] !arpeggio![A,C]4 !arpeggio![CE]4 | !arpeggio![DEG]4 !arpeggio![CE]4 | x8 |[K:bass] x8 | %107
 x2[K:] x4[K:bass] x2 ||[K:D] x8 | x8 | x8 | x8 | x8 | x8 | x8 | x8 | x8 | x8 | x8 | x8 | x8 | x8 | %122
 x8 | x15/4[K:treble] x9/4[K:bass] x2 | x4[K:treble] x2!8va(! x2 | x4!8va)![K:bass] x4 |] %126
[K:A][M:4/4][K:treble] !arpeggio![CE]8 | !arpeggio![B,D]8 | !arpeggio![CE]8 | !arpeggio![B,D]8 || %130
 !arpeggio![CE]8 | !arpeggio![B,D]4 !arpeggio![^A,C]4 | x4 [G,D]4 |[K:bass] A,,8 | %134
[K:treble] !arpeggio![CE]8 | !arpeggio![B,D]4 !arpeggio![^A,C]4 |[K:bass] x8 | x2 C,2 F,,4 | x8 | %139
 x8 | x8 | x6 ||[K:treble] [B,C^E]8 | x8 |[K:bass] [F,G,^B,]8 | x8 |[K:treble] [B,C^E]8 | x8 | x8 | %149
 x4[K:bass] x4 |[K:treble] !arpeggio![CE]8 | !arpeggio![B,D]4 !arpeggio![^A,C]4 | x4 [G,D]4 | %153
[K:bass] A,,8 |[K:treble] !arpeggio![CE]8 | !arpeggio![B,D]4 !arpeggio![^A,C]4 |[K:bass] x8 | %157
 x2 C,2 F,,4 | x8 | x8 | x8 | x8 |] %162

